X: 1
T: Superfly
C: Kevin O'Neill
Z: Joe CSS
S: https://thesession.org/tunes/9942#setting9942
R: reel
M: 4/4
L: 1/8
K: Bmin
|:Bf ~f2 gfeg|f3 g fedf|e3 f edce|dBBA BAFA|
Bf ~f2 gfeg|f3 g fedf|e3 f edce|dBBA B2 BA:|
|:Bcde f2 Bc|defB g2 Bc|defd agfa|gfeg fedc|
Bcde f2 Bc|defB g2 Bc|defd agfa|gfeg fedc:|

